!!!COM: Scarlatti, Domenico
!!!CDT: 1685-1757
!!!OTL: Sonata in D major, L.178, K.258
!!!SCT: K. 258
!!!SCT: L. 178
!!!OMD: Andante ([quarter]=92)
**kern	**kern	**dynam
*staff2	*staff1	*staff1/2
*Icemba	*Icemba	*
*I"L.258 (K.178)	*I"L.258 (K.178)	*
*>[A,A,B,B]	*>[A,A,B,B]	*>[A,A,B,B]
*>norep[A,B]	*>norep[A,B]	*>norep[A,B]
*>A	*>A	*>A
*clefF4	*clefG2	*
*k[f#c#]	*k[f#c#]	*
*D:	*D:	*
*M3/4	*M3/4	*
*MM92	*MM92	*
=1-	=1-	=1-
*ped	*	*
2DD	(8ddL	p
.	8a	.
.	8f#	.
.	8dJ)	.
*Xped	*	*
[4d	(8ff#Lm	mf
.	16eeL	.
.	16ddJJ)	.
=2	=2	=2
8dL]	2.e	.
(8d	.	.
8c#m	.	.
8B	.	.
8c#	.	.
8dJ)	.	.
=3	=3	=3
*ped	*	*
2AA	(8eeL	p
.	8cc#	.
.	8g	.
.	8eJ)	.
*Xped	*	*
[4e	(8ggL	mf
.	16ff#L	.
.	16eeJJ)	.
=4	=4	=4
8eL]	2.f#	.
(8e	.	.
8dM	.	.
8c#	.	.
8d	.	.
8eJ)	.	.
!!LO:LB:g=z
=5	=5	=5
*ped	*	*
2D	(8ff#L	p
.	8dd	.
.	8a	.
.	8f#J)	.
*Xped	*	*
[4f#	(8aaLM	mf
.	16ggL	.
.	16ff#JJ)	.
=6	=6	=6
8f#L]	2.g	.
(8f#	.	.
8eM	.	.
8d#	.	.
8e	.	.
8f#J)	.	.
=7	=7	=7
*ped	*	*
2E	(8ggL	p
.	8ee	.
.	8b	.
.	8gJ)	.
*Xped	*	*
([4g	(8bbLM	mf
.	16aaL	.
.	16ggJJ	.
=8	=8	=8
8gL]	8aaL	.
16f#L	8cc#J	.
16eJJ	.	.
8f#L	8ddL	.
8dJ	16eeL	.
.	16ff#JJ	.
.	(16aaqq	.
8eL	8ggL)	>
16dL	16ff#L	.
16c#JJ	16eeJJ	]]
!!LO:LB:g=z
=9	=9	=9
*ped	*	*
(8dL)	(4ff#)	p
8A	.	.
8F#	4a	.
8DJ)	.	.
*ped	*	*
(8f#Lm	[4dd	mf
16eL	.	.
16dJJ)	.	.
=10	=10	=10
*	*^	*
*ped	*	*	*
2.EE	4ryy	8ddL]	>
.	.	8eeJ	]
.	8cc#L	2g	p
.	8dd	.	.
.	8ee	.	.
.	8ff#J	.	.
*	*v	*v	*
=11	=11	=11
(8eL	(8ggL)	.
8c#	8ee	.
8G	8cc#	.
8EJ)	8ddJ	.
(8gLM	[4ee	mf
16f#L	.	.
16eJJ)	.	.
=12	=12	=12
*	*^	*
*ped	*	*	*
2.FF#	4ryy	8eeL]	>
.	.	8ff#J	.
.	8ddL	2a	] p
.	8ee	.	.
.	8ff#	.	.
.	8ggJ	.	.
*	*v	*v	*
=13	=13	=13
(8f#L	(8aaL)	.
8d	8ff#	.
8A	8dd	.
8F#J)	8eeJ	.
(8aLM	[4ff#	mf
16gL	.	.
16f#JJ	.	.
!!LO:LB:g=z
=14	=14	=14
*	*^	*
*ped	*	*	*
2.GG)	4ryy	8ff#L]	>
.	.	8ggJ	.
.	8eeL	2b	] p <
.	8ff#	.	.
.	8gg	.	.
.	8aaJ	.	[[
*	*v	*v	*
=15	=15	=15
(8gL	8bb')	mf
8e	(4gg	.
8B	.	.
8GJ)	8ff#L	.
(8bLM	8ee	.
16aL	8ddJ)	.
16gJJ)	.	.
=16	=16	=16
*Xped	*	*
4.AA	(8ddL	.
.	8cc#J)	.
.	(4.aa	.
(8gL	.	.
8f#	.	.
8eJ	8gg	.
=17	=17	=17
8dL	8ff#L	>
8e	8ee	.
8f#	8dd	.
8dJ	8cc#J	.
8gL	4b	.
16f#L	.	.
16eJJ	.	.
=18	=18	=18
4f#	8aL	.
.	8ddJ	.
4e	2gT	.
4A	.	.
.	16aqLL	.
.	16gqJJ	.
!!LO:LB:g=z
=19	=19	=19
*ped	*	*
8dL	8f#L	p
8DJ)	8ddJ	.
*ped	*	*
(8AL	4gMM< 4cc#)	.
8AAJ)	.	.
*ped	*	*
(8dL	(8f#L	.
8DJ)	8ddJ)	.
=20	=20	=20
*ped	*	*
(8AL	4gMM< 4cc#	.
8AAJ)	.	.
*ped	*	*
(8dL	(8f#' 8dd'L	.
8DJ)	8f#') 8dd'J	.
*ped	*	*
(8eL	4g#mm</ 4dd/	.
8EJ)	.	.
=21	=21	=21
*	*^	*
*ped	*	*	*
(8AL>	(8cc#L	4a	.
8AAJ)	8eeJ)	.	.
*ped	*	*	*
(8eL	4ryy	4g#mm</ 4dd/	.
8EJ)	.	.	.
*ped	*	*	*
(8AL>	(8cc#L	4a	.
8AAJ)	8ddJ)	.	.
=22	=22	=22	=22
*ped	*	*	*
(8F#L	4ryy	4a#mm< 4ee	.
8FF#J)	.	.	.
*ped	*	*	*
(8BL	(8ddL	4b	.
8BBJ)	8ff#J)	.	.
*ped	*	*	*
(8F#L	4ryy	4a#mm< 4ee	.
8FF#J)	.	.	.
=23	=23	=23	=23
*ped	*	*	*
!	!	!	!LO:HP:t=poco %s
(8BL	(8ddL	4b	<
8BBJ)	8ff#J)	.	.
*ped	*	*	*
(8AL	4ryy	4cc#mm< 4gg	.
8AAJ)	.	.	.
*ped	*	*	*
(8dL	(8ff#L	4dd	.
8DJ)	8aaJ)	.	.
!!LO:LB:g=z
=24	=24	=24	=24
*ped	*	*	*
(8AL	4ryy	4cc#mm< 4gg	.
8AAJ)	.	.	.
*ped	*	*	*
(8dL	(8ff#'L	4dd	.
8DJ)	8ff#'J)	.	.
*ped	*	*	*
(8eL	4ryy	4ddMM< 4gg#	.
8EJ)	.	.	.
=25	=25	=25	=25
*ped	*	*	*
(8AL	(8aa'L	4cc#	.
8AAJ)	8aa'J)	.	.
*ped	*	*	*
(8eL	4ryy	4ddMM/ 4gg#/	.
8EJ)	.	.	.
*Xped	*	*	*
4A	4ryy	16cc# (16aaLL	mf
.	.	16gg#	.
.	.	16ff#	.
.	.	16eeJJ	.
*	*v	*v	*
=26	=26	=26
2.r	16ddLL	.
.	16cc#	.
.	16b	.
.	16aJJ	.
.	16g#LL	.
.	16f#	.
.	16e	.
.	16dJJ	.
.	16c#LL	.
.	16d	.
.	16e	.
.	16dJJ)	.
=27	=27	=27
(16c#LL	2.r	>
16B	.	.
16A	.	.
16G#JJ	.	.
16F#LL	.	.
16E	.	.
16D	.	.
16C#JJ	.	.
16BBLL	.	.
16AA	.	.
16GG#	.	.
16FF#JJ	.	.
!!LO:LB:g=z
=28	=28	=28
4EE)	16r	p
.	(16eLL	.
.	16f#	.
.	16eJJ	.
4r	16f#LL	.
.	16a	.
.	16g#	.
.	16aJJ	.
(4E	16g#LL	<
.	16b	.
.	16a	.
.	16bJJ	.
=29	=29	=29
4F#	16aLL	.
.	16cc#	.
.	16b	.
.	16cc#JJ	.
4G#	16bLL	.
.	16dd	.
.	16cc#	.
.	16ddJJ)	.
4A)	(8cc#Lm	mf
.	16bL	.
.	16aJJ	.
=30	=30	=30
16r	4ee	.
(16ELL	.	p
16F#	.	.
16EJJ	.	.
16F#LL	4dd	<
16A	.	.
16G#	.	.
16AJJ	.	.
16G#LL	4b	.
16B	.	.
16A	.	.
16BJJ	.	.
!!LO:LB:g=z
=31	=31	=31
16ALL	4cc#	.
16c#	.	.
16B	.	.
16c#JJ	.	.
16BLL	4b)	.
16d	.	.
16c#	.	.
16dJJ)	.	.
(8c#Lm	(8eeLM	mf
16BL	16ddL	.
16AJJ	16cc#JJ)	.
=32	=32	=32
*	*^	*
4e)	4ryy	16r	.
.	.	(>16bLL	p
.	.	16ccn	.
.	.	16dd#JJ	.
4r	8eeL)	(16eeLL	.
.	.	16e	.
.	(8ddnJ	16fn	.
.	.	16g#JJ	.
16r	[4a) (4cc)	4ryy	mf
(16ALL	.	.	.
16cn	.	.	.
16d#JJ	.	.	.
=33	=33	=33	=33
4e)	16a] 16ccnLL)	4ryy	.
.	(16b	.	p
.	16cc	.	.
.	16dd#JJ	.	.
4r	8eeL	16eeLL	.
.	.	16e)	.
.	(8ddnJ	16fn	.
.	.	16g#JJ	.
16r	[4a [4ccn)	4ryy	mf
(16ALL	.	.	.
16cn	.	.	.
16d#JJ	.	.	.
*	*v	*v	*
!!LO:LB:g=z
=34	=34	=34
4.e	16a] 16ccnLL]	.
.	(16b	p <
.	16cc	.
.	16dd#JJ	.
.	(16eeLL)	.
.	16ee	.
8dn	16ffn	.
.	16gg#JJ	.
4cn	16aaLL	[
.	16a	mf
.	16cc	.
.	16eeJJ	.
=35	=35	=35
4d	16ffnLL	.
.	16g#	.
.	16b	.
.	16dd#JJ	.
4e	16eeLL	>
.	16ccn	.
.	16ddn	.
.	16bJJ	.
4E	16ccLL	.
.	16a	.
.	16b	.
.	16g#JJ	.
=36	=36	=36
*	*^	*
4AA)	16aLL>	4ryy	p
.	16b	.	.
.	16ccn	.	.
.	16dd#JJ	.	.
4r	8eeL	(16eeLL)	.
.	.	16e	.
.	(8ddnJ	16fn	.
.	.	16g#JJ	.
16r	[4a/) [4cc/)	4ryy	mf
(16ALL	.	.	.
16cn	.	.	.
16d#JJ	.	.	.
!!LO:LB:g=z
=37	=37	=37	=37
4e)	16a] 16ccnLL>]	4ryy	.
.	(>16b	.	p
.	16ccny	.	.
.	16dd#JJ	.	.
4r	8eeL	(16eeLL)	.
.	.	16e	.
.	(8ddnJ	16fn	.
.	.	16g#JJ	.
16r	[4a/) [4cc/)	4ryy	.
(16ALL	.	.	mf
16cn	.	.	.
16d#JJ	.	.	.
*	*v	*v	*
=38	=38	=38
4.e	16a] (16ccnLL]	.
.	16b	p <
.	16cc	.
.	16dd#JJ	.
.	16eeLL)	.
.	(16ee	.
8dn	16ffn	.
.	16gg#JJ	.
4cn	16aaLL	.
.	16a	[ mf
.	16cc	.
.	16eeJJ	.
=39	=39	=39
4d	16ffnLL	.
.	16g#	.
.	16b	.
.	16dd#JJ	.
4e	16eeLL	>
.	16ccn	.
.	16ddn	.
.	16bJJ	.
4E	16ccLL	.
.	16a	.
.	16b	.
.	16g#JJ	.
!!LO:LB:g=z
=40	=40	=40
4A)	8aL)	.
.	(16aaL	f
.	16gg#JJ	.
(4a	16aaLL	.
.	16ee	.
.	16ff#X	.
.	16ddJJ	.
4g#)	16eeLL	.
.	16cc#X	.
.	16dd	.
.	16bJJ	.
=41	=41	=41
8r	4.cc#	.
(16aLL	.	.
16g#JJ	.	.
16aLL	.	.
16e	.	.
16f#	8ddL	.
16dJJ	.	.
16eLL	8ee	.
16c#	.	.
16d	8ff#J	.
16BJJ	.	.
=42	=42	=42
4c#)	8eeL)	.
.	(16aaL	p
.	16gg#JJ	.
(4a	16aaLL	.
.	16ee	.
.	16ff#	.
.	16ddJJ	.
4g#)	16eeLL	.
.	16cc#	.
.	16dd	.
.	16bJJ	.
!!LO:LB:g=z
=43	=43	=43
8r	4.cc#	.
(16aLL	.	.
16g#JJ	.	.
16aLL	.	.
16e	.	.
16f#	8ddL	.
16dJJ	.	.
16eLL	8ee	.
16c#	.	.
16d	8ff#J	.
16BJJ	.	.
=44	=44	=44
16c#LL	8eeL	<
16A	.	.
16B	8dd	.
16G#JJ	.	.
16ALL	8cc#	.
16E	.	.
16F#	8b	.
16DJJ	.	.
16ELL	8a	.
16C#	.	.
16D	8g#J	.
16BBJJ	.	.
=45	=45	=45
8C#L	16aLL	.
.	16b	.
8DJ	16cc#	.
.	16ddJJ	.
4E	16cc#LL	.
.	16dd	.
.	16ee	.
.	16ddJJ	.
4EE	16cc#LL<	.
.	16b	.
.	16a	.
.	16g#JJ	.
!!LO:LB:g=z
=46	=46	=46
4AA)	8aL)	.
.	(16aaL	f
.	16gg#JJ	.
(<4A	16aaLL	.
.	16ee	.
.	16ff#	.
.	16ddJJ	.
4G#	16eeLL	.
.	16cc#	.
.	16dd	.
.	16bJJ	.
=47	=47	=47
4A	16cc#LL	>
.	16a	.
.	16b	.
.	16g#JJ	.
4D	16aLL	.
.	16e	.
.	16f#	.
.	16dJJ	.
4E	16c#LL	.
.	16a	.
.	16B	.
.	16g#JJ)	.
=48	=48	=48
.	(8g#qq	.
4AA/) 4A/	4a)	p
4r	4r	.
4r	4r	.
=49:|!|:	=49:|!|:	=49:|!|:
*>B	*>B	*>B
*^	*	*
2ryy	(<2A	16r	.
.	.	(16aLL	p
.	.	16cc#	.
.	.	16ddJJ	.
.	.	16eeLL<	<
.	.	16e	.
.	.	16g	.
.	.	16aJJ	[[
(16GLL	4G)	4b-)	>
16c#	.	.	.
16d	.	.	.
16eJJ	.	.	]]
!!LO:LB:g=z
=50	=50	=50	=50
2ryy	4d 4fn)	16r	.
.	.	(16aLL	.
.	.	16cc#	.
.	.	16ddJJ	.
.	(<4A	16eeLL<	<
.	.	16e	.
.	.	16g	.
.	.	16aJJ	[[
(16GLL	4G)	4b-)	>
16c#	.	.	.
16d	.	.	.
16eJJ	.	.	]]
=51	=51	=51	=51
4d 4fn	2A	16r	.
.	.	(16aLL	<
.	.	16cc#	.
.	.	16ddJJ	.
4e 4g)	.	16eeLL	.
.	.	16ffn	.
.	.	16gg	.
.	.	16eeJJ)	[
4A 4d (4f	4ryy	(8ffLM	mf
.	.	16eeL	.
.	.	16ddJJ	.
*v	*v	*	*
=52	=52	=52
4A 4e	16aaLL	.
.	16a	.
.	16ee	.
.	16ffnJJ	.
4B- 4d	16ggLL	>
.	16g	.
.	16dd	.
.	16eeJJ	.
4A 4cn	16ffLL	.
.	16fn	.
.	16ccn	.
.	16ddJJ	.
!!LO:LB:g=z
=53	=53	=53
4G 4B-	16eeLL>	.
.	16e	.
.	16b-	.
.	16ccnJJ	.
4Fn 4A	16ddLL	.
.	16d	.
.	16a	.
.	16b-JJ	.
4E 4G	16ccLL	.
.	16cn	.
.	16g	.
.	16aJJ	.
=54	=54	=54
4D 4Fn	16b-LL	.
.	16dd	.
.	16ccn	.
.	16b-JJ	<
4E 4G	16ccLL	.
.	16dd	.
.	16ee	.
.	16ffnJJ	[
4Cn 4E	16ggLL	>
.	16b-	.
.	16a	.
.	16gJJ	]]
=55	=55	=55
4Fn 4A	16aLL	.
.	16g	.
.	16fn	.
.	16eJJ	.
4E 4G	16fLL	.
.	16e	.
.	16f	.
.	16gJJ	.
4D 4F)	16aLL	.
.	16g	.
.	16a	.
.	16bnJJ	.
!!LO:LB:g=z
=56	=56	=56
16r	4ccn)	p
(16CnLL<	.	.
16D	.	.
16CJJ	.	.
16DLL	(4cc	<
16Fn	.	.
16E	.	.
16FJJ	.	.
16ELL	4cc'	.
16G	.	.
16F	.	.
16GJJ	.	.
=57	=57	=57
16FnLL	4ccn'	.
16A	.	.
16G	.	.
16AJJ	.	.
16GLL	4cc'	.
16B-	.	.
16A	.	.
16B-JJ)	.	.
(8ALm	4cc)	.
16GL	.	.
16FJJ	.	.
=58	=58	=58
4cn)	16r	.
!	!	!LO:DY:rj
.	(16ccnLL>	mf
.	16b-	.
.	16aJJ	.
(<4Cn	16gLL	.
.	16f#X	.
.	16g	.
.	16aJJ	.
4E-)	16b-LL	.
.	16cc	.
.	16dd	.
.	16ee-JJ	.
!!LO:LB:g=z
=59	=59	=59
16r	4dd)	p
(16DLL	.	.
16En	.	.
16DJJ	.	.
16ELL	(4dd'	<
16G	.	.
16F#X	.	.
16GJJ	.	.
16F#LL	4dd'	.
16A	.	.
16G	.	.
16AJJ	.	.
=60	=60	=60
16GLL	4dd'	.
16B-	.	.
16A	.	.
16B-JJ	.	.
16ALL	4dd'	.
16cn	.	.
16B-	.	.
16cJJ)	.	.
(8B-LM	4dd')	.
16AL	.	.
16GJJ	.	.
=61	=61	=61
4d)	16r	.
.	(16ddLL	mf
.	16ccn	.
.	16bnJJ	.
(4D	16aLL	.
.	16g#	.
.	16a	.
.	16bJJ	.
4Fn)	16ccLL	.
.	16dd	.
.	16ee	.
.	16ffnJJ	.
!!LO:LB:g=z
=62	=62	=62
16r	4ee)	.
(16ELL	.	p
16F#X	.	.
16EJJ	.	.
16F#LL	(4ee'	<
16A	.	.
16G#	.	.
16AJJ	.	.
16G#LL	4ee'	.
16B	.	.
16A	.	.
16BJJ	.	.
=63	=63	=63
16ALL	4ee'	.
16cn	.	.
16B	.	.
16cJJ	.	.
16BLL	4ee'	.
16d	.	.
16c	.	.
16dJJ)	.	.
(8cLM	4ee')	.
16BL	.	.
16AJJ	.	.
=64	=64	=64
4e)	16r	.
.	(16bLL	mf
.	16ccn	p
.	16dd#JJ	.
*clefG2	*	*
16r	8eeL	<
(16eLL	.	.
16fn	8ddnJ	.
16g#JJ	.	.
[4a)	16ccLL)	.
.	16ee	.
.	16ffn	.
.	16gg#JJ	.
!!LO:LB:g=z
=65	=65	=65
*	*^	*
16aLL<]	4ryy	8aaL	.
(16a	.	.	.
16b-	.	8ggnJ	.
16cc#XJJ	.	.	.
4dd	&(<16dddLL	4ffn	f
.	16ccc#	.	.
.	16bb-	.	.
.	16aaJJ	.	.
4g	4ryy	16ggLL	.
.	.	16ff	.
.	.	16ee	.
.	.	16ddJJ	.
=66	=66	=66	=66
4a)	(4ee	16cc#XLL	.
.	.	16b-	.
.	.	16a	.
.	.	16gJJ	.
*clefF4	*	*	*
(4d	(<16ddLL)	4fn&)	>
.	16ccn	.	.
.	16b-X	.	.
.	16aJJ	.	.
4G	16gLL	4ryy	.
.	16f	.	.
.	16e	.	.
.	16dJJ	.	.
=67	=67	=67	=67
4A')	&(4e	16c#XLL	.
.	.	16B-	.
.	.	16A	.
.	.	16GJJ	.
4D	16dLL	4Fn)	.
.	16cn	.	.
.	16B-	.	.
.	16AJJ	.	.
4BBB- 4BB-	4G&)	4ryy	p
!!LO:LB:g=z
=68	=68	=68	=68
4AAA 4AA	4ryy	16r	p
.	.	(16eeLL	.
.	.	16ffn	.
.	.	16gg#JJ	.
4r	8aaL	(16aaLL)	.
.	.	16a	.
.	(8ggnJ	16b-	.
.	.	16cc#JJ)	.
*clefG2	*	*	*
16r	4ryy	[4dd (4ff)	mf
(16dLL	.	.	.
16fn	.	.	.
16g#JJ	.	.	.
=69	=69	=69	=69
4a)	4ryy	16dd] 16ffnLL)	.
.	.	(16ee	p
.	.	16ff	.
.	.	16gg#JJ	.
4r	8aaL	(16aaLL)	.
.	.	16a	.
.	(8ggnJ	16b-	.
.	.	16cc#JJ	.
16r	4ryy	[4dd) [4ffn)	mf
(16dLL	.	.	.
16fn	.	.	.
16g#JJ	.	.	.
*	*v	*v	*
=70	=70	=70
4.a	16dd] 16ffnXLL]	.
.	(16ee	.
.	16ff	.
.	16gg#JJ	.
.	16aaLL)	.
.	(16aa	.
8gn	16bb-	.
.	16ccc#XJJ	.
4fn	16dddLL	mf
.	16dd	.
.	16ff	.
.	16aaJJ	.
!!LO:LB:g=z
=71	=71	=71
4g	16bb-LL	.
.	16cc#X	.
.	16ee	.
.	16gg#JJ	.
4a	16aaLL	>
.	16ffn	.
.	16ggn	.
.	16eeJJ	.
4A	16ffLL	.
.	16dd	.
.	16ee	.
.	16cc#JJ	.
=72	=72	=72
*	*^	*
4d)	4ryy	16ddLL	p
.	.	16ee	.
.	.	16ffn	.
.	.	16gg#JJ	.
4r	8aaL	16aaLL)	.
.	.	16a	.
.	(8ggnJ	16b-	.
.	.	16cc#XJJ	.
16r	4ryy	[4dd [4ffn)	mf
(16dLL	.	.	.
16fn	.	.	.
16g#JJ	.	.	.
=73	=73	=73	=73
4a)	4ryy	16dd] 16ffnLL]	.
.	.	(16ee	p
.	.	16ff	.
.	.	16gg#JJ	.
4r	8aaL	16aaLL)	.
.	.	16a	.
.	(8ggnJ	16b-	.
.	.	16cc#XJJ	.
16r	4ryy	[4dd [4ffn)	mf
(16dLL	.	.	.
16fn	.	.	.
16g#JJ	.	.	.
*	*v	*v	*
!!LO:LB:g=z
=74	=74	=74
4.a	16dd] 16ffnLL]	.
.	(16ee	p
.	16ff	.
.	16gg#JJ	.
.	16aaLL)	.
.	(16aa	.
8gn	16bb-	.
.	16ccc#XJJ	.
4fn	16dddLL	.
.	16dd	mf
.	16ff	.
.	16aaJJ	.
=75	=75	=75
4g	16bb-LL	.
.	16cc#X	.
.	16ee	.
.	16gg#JJ	.
4a	16aaLL	>
.	16ffn	.
.	16ggn	.
.	16eeJJ	.
4A	16ffLL	.
.	16dd	.
.	16ee	.
.	16cc#JJ	.
=76	=76	=76
4d)	8ddL)	p
.	(16dddL	f
.	16ccc#JJ	.
(4dd	16dddLL	.
.	16aa	.
.	16bbn	.
.	16ggJJ	.
4cc#)	16aaLL	.
.	16ff#	.
.	16gg	.
.	16eeJJ	.
!!LO:LB:g=z
=77	=77	=77
8r	4.ff#	.
(16ddLL	.	.
16cc#JJ	.	.
16ddLL<	.	.
16a	.	.
16b	8ggL	.
16gJJ	.	.
16aLL	8aa	.
16f#	.	.
16g	8bbJ	.
16eJJ	.	.
=78	=78	=78
4f#)	8aaL)	.
.	(16dddL	p
.	16ccc#JJ	.
(4dd	16dddLL	.
.	16aa	.
.	16bb	.
.	16ggJJ	.
4cc#)	16aaLL	.
.	16ff#	.
.	16gg	.
.	16eeJJ	.
=79	=79	=79
8r	4.ff#	.
(16ddLL	.	.
16cc#JJ	.	.
16ddLL<	.	.
16a	.	.
16b	8ggL	.
16gJJ	.	.
16aLL	8aa	.
16f#	.	.
16g	8bbJ	.
16eJJ	.	.
!!LO:LB:g=z
=80	=80	=80
16f#LL	8aaL	<
16d	.	.
16e	8gg	.
16c#JJ	.	.
*clefF4	*	*
16dLL	8ff#	.
16A	.	.
16B	8ee	.
16GJJ	.	.
16ALL	8dd	.
16F#	.	.
16G	8cc#J	.
16EJJ	.	.
=81	=81	=81
8F#L	16ddLL	.
.	16ee	.
8GJ	16ff#	.
.	16ggJJ	.
4A	16ff#LL	.
.	16gg	.
.	16aa	.
.	16ggJJ	.
4AA	16ff#LL	.
.	16ee	.
.	16dd	.
.	16cc#JJ	.
=82	=82	=82
4D)	8ddL)	f
.	(16dddL	.
.	16ccc#JJ	.
(4d	16dddLL	.
.	16aa	.
.	16bb	.
.	16ggJJ	.
4c#	16aaLL	.
.	16ff#	.
.	16gg	.
.	16eeJJ	.
!!LO:LB:g=z
=83	=83	=83
4d	16ff#LL	.
.	16dd	.
.	16ee	.
.	16cc#JJ	.
4G	16ddLL	.
.	16a	.
.	16b	.
.	16gJJ	.
4A)	16f#LL	.
.	16dd	.
.	16e	.
.	16cc#JJ	.
=84	=84	=84
4DD	8ddL)	.
.	(16ddL	p
.	16cc#JJ	.
(<4D	16ddLL<	.
.	16a	.
.	16b	.
.	16gJJ	.
4C#	16aLL	.
.	16f#	.
.	16g	.
.	16eJJ	.
=85	=85	=85
4D	16f#LL	.
.	16d	.
.	16e	.
.	16c#JJ	.
*	*clefF4	*clefF4
!	!LO:TX:i:c:t=rall.	!
4GG	16dLL	.
.	16A	.
.	16B	.
.	16GJJ	.
4AA	16F#LL	.
.	16d	.
.	16E	.
.	16c#JJ)	.
=86	=86	=86
.	(8c#qq	.
4DD) 4D	4d)	.
4r	4r	.
4r	4r	.
==:|!	==:|!	==:|!
*-	*-	*-
!!!RDF**kern: > = above
!!!RDF**kern: < = below
!!!URL-vhv: https://verovio.humdrum.org/?file=scarlatti/sonatas/L178K258.krn
!!!URL-pdf: https://github.com/craigsapp/scarlatti-keyboard-sonatas/blob/master/reference-edition/L178K258.pdf
!!!PTL: Domenico Scarlatti: Opere complete per clavicembalo
!!!PED: Longo, Alessandro
!!!PPR: Ricordi
!!!PPP: Milan
!!!PDT: 1906-1913
!!!YEC: 2021 Craig Stuart Sapp
!!!YEM: Licence: (CC BY-NC-SA 4.0) https://creativecommons.org/licenses/by-nc-sa/4.0
!!!ENC: Craig Stuart Sapp
!!!END: 2014/06/03
!!!EED: Craig Stuart Sapp
!!!EEV: 2021/05/30
